src/img/logo.svg

<svg width="171" height="20" viewBox="0 0 171 20" fill="none" xmlns="http://www.w3.org/2000/svg">
<path d="M161.795 17.638H170.795V19.294H161.795V17.638Z" fill="white"/>
<path d="M24.2579 8.584C24.7019 8.584 25.0799 8.674 25.3919 8.854C25.7039 9.034 26.0579 9.298 26.4539 9.646C26.7539 9.91 26.9939 10.102 27.1739 10.222C27.3539 10.33 27.5519 10.384 27.7679 10.384C28.1039 10.384 28.4099 10.258 28.6859 10.006C28.9619 9.754 29.2259 9.388 29.4779 8.908L30.7559 9.52C30.3719 10.3 29.9459 10.912 29.4779 11.356C29.0219 11.8 28.4339 12.022 27.7139 12.022C27.2939 12.022 26.9279 11.932 26.6159 11.752C26.3039 11.572 25.9559 11.314 25.5719 10.978C25.2839 10.726 25.0379 10.54 24.8339 10.42C24.6419 10.288 24.4319 10.222 24.2039 10.222C23.8559 10.222 23.5499 10.348 23.2859 10.6C23.0219 10.852 22.7579 11.218 22.4939 11.698L21.2159 11.086C21.5999 10.318 22.0199 9.712 22.4759 9.268C22.9439 8.812 23.5379 8.584 24.2579 8.584Z" fill="#FF652F"/>
<path d="M32.1709 17.188L39.8029 1.384L41.3869 2.122L33.7729 17.908L32.1709 17.188Z" fill="#FF652F"/>
<path d="M48.6879 16L47.6079 9.25L46.4559 16H43.9899L42.3879 6.496H44.3319L45.3219 14.74L46.6539 7.702H48.6699L49.8939 14.74L50.8839 6.496H52.7559L51.2079 16H48.6879Z" fill="#FF652F"/>
<path d="M56.2408 11.896C56.3008 12.82 56.5648 13.516 57.0328 13.984C57.5128 14.44 58.1128 14.668 58.8328 14.668C59.2768 14.668 59.6968 14.602 60.0928 14.47C60.5008 14.326 60.9148 14.116 61.3348 13.84L62.1988 15.064C61.7548 15.436 61.2328 15.724 60.6328 15.928C60.0328 16.132 59.4028 16.234 58.7428 16.234C57.2908 16.234 56.1628 15.784 55.3588 14.884C54.5548 13.972 54.1528 12.76 54.1528 11.248C54.1528 10.3 54.3268 9.448 54.6748 8.692C55.0228 7.924 55.5268 7.324 56.1868 6.892C56.8468 6.46 57.6148 6.244 58.4908 6.244C59.7508 6.244 60.7468 6.67 61.4788 7.522C62.2228 8.362 62.5948 9.52 62.5948 10.996C62.5948 11.356 62.5768 11.656 62.5408 11.896H56.2408ZM58.5088 7.738C57.8608 7.738 57.3328 7.972 56.9248 8.44C56.5168 8.908 56.2828 9.604 56.2228 10.528H60.6328C60.6088 9.628 60.4168 8.938 60.0568 8.458C59.6968 7.978 59.1808 7.738 58.5088 7.738Z" fill="#FF652F"/>
<path d="M67.3758 7.63C67.6998 7.186 68.0838 6.844 68.5278 6.604C68.9838 6.364 69.4698 6.244 69.9858 6.244C71.1978 6.244 72.0918 6.682 72.6678 7.558C73.2438 8.434 73.5318 9.658 73.5318 11.23C73.5318 12.718 73.1958 13.924 72.5238 14.848C71.8638 15.772 70.9338 16.234 69.7338 16.234C68.6778 16.234 67.8498 15.844 67.2498 15.064L67.1418 16H65.3598V2.68L67.3758 2.446V7.63ZM69.2478 14.704C69.9438 14.704 70.4718 14.422 70.8318 13.858C71.2038 13.282 71.3898 12.412 71.3898 11.248C71.3898 10.048 71.2218 9.172 70.8858 8.62C70.5618 8.068 70.0758 7.792 69.4278 7.792C69.0198 7.792 68.6358 7.918 68.2758 8.17C67.9278 8.422 67.6278 8.752 67.3758 9.16V13.606C67.8558 14.338 68.4798 14.704 69.2478 14.704Z" fill="#FF652F"/>
<path d="M75.3428 17.188L82.9748 1.384L84.5588 2.122L76.9448 17.908L75.3428 17.188Z" fill="#FF652F"/>
<path d="M94.5417 2.68V16H92.7598L92.6157 14.83C92.3037 15.286 91.9197 15.634 91.4637 15.874C91.0077 16.114 90.5037 16.234 89.9517 16.234C88.7637 16.234 87.8697 15.79 87.2697 14.902C86.6697 14.014 86.3698 12.796 86.3698 11.248C86.3698 10.276 86.5197 9.412 86.8197 8.656C87.1317 7.9 87.5698 7.312 88.1338 6.892C88.6978 6.46 89.3637 6.244 90.1317 6.244C91.1037 6.244 91.9017 6.592 92.5257 7.288V2.446L94.5417 2.68ZM90.6537 7.792C89.9577 7.792 89.4238 8.08 89.0518 8.656C88.6918 9.22 88.5117 10.084 88.5117 11.248C88.5117 13.552 89.1717 14.704 90.4917 14.704C91.2837 14.704 91.9617 14.248 92.5257 13.336V8.854C92.0337 8.146 91.4097 7.792 90.6537 7.792Z" fill="#FF652F"/>
<path d="M99.4127 11.896C99.4727 12.82 99.7367 13.516 100.205 13.984C100.685 14.44 101.285 14.668 102.005 14.668C102.449 14.668 102.869 14.602 103.265 14.47C103.673 14.326 104.087 14.116 104.507 13.84L105.371 15.064C104.927 15.436 104.405 15.724 103.805 15.928C103.205 16.132 102.575 16.234 101.915 16.234C100.463 16.234 99.3347 15.784 98.5307 14.884C97.7267 13.972 97.3247 12.76 97.3247 11.248C97.3247 10.3 97.4987 9.448 97.8467 8.692C98.1947 7.924 98.6987 7.324 99.3587 6.892C100.019 6.46 100.787 6.244 101.663 6.244C102.923 6.244 103.919 6.67 104.651 7.522C105.395 8.362 105.767 9.52 105.767 10.996C105.767 11.356 105.749 11.656 105.713 11.896H99.4127ZM101.681 7.738C101.033 7.738 100.505 7.972 100.097 8.44C99.6887 8.908 99.4547 9.604 99.3947 10.528H103.805C103.781 9.628 103.589 8.938 103.229 8.458C102.869 7.978 102.353 7.738 101.681 7.738Z" fill="#FF652F"/>
<path d="M113.5 16H111.16L107.794 6.496H109.972L112.366 14.326L114.796 6.496H116.866L113.5 16Z" fill="#FF652F"/>
<path d="M118.515 17.188L126.147 1.384L127.731 2.122L120.117 17.908L118.515 17.188Z" fill="#FF652F"/>
<path d="M137.714 2.68V16H135.932L135.788 14.83C135.476 15.286 135.092 15.634 134.636 15.874C134.18 16.114 133.676 16.234 133.124 16.234C131.936 16.234 131.042 15.79 130.442 14.902C129.842 14.014 129.542 12.796 129.542 11.248C129.542 10.276 129.692 9.412 129.992 8.656C130.304 7.9 130.742 7.312 131.306 6.892C131.87 6.46 132.536 6.244 133.304 6.244C134.276 6.244 135.074 6.592 135.698 7.288V2.446L137.714 2.68ZM133.826 7.792C133.13 7.792 132.596 8.08 132.224 8.656C131.864 9.22 131.684 10.084 131.684 11.248C131.684 13.552 132.344 14.704 133.664 14.704C134.456 14.704 135.134 14.248 135.698 13.336V8.854C135.206 8.146 134.582 7.792 133.826 7.792Z" fill="#FF652F"/>
<path d="M142.585 11.896C142.645 12.82 142.909 13.516 143.377 13.984C143.857 14.44 144.457 14.668 145.177 14.668C145.621 14.668 146.041 14.602 146.437 14.47C146.845 14.326 147.259 14.116 147.679 13.84L148.543 15.064C148.099 15.436 147.577 15.724 146.977 15.928C146.377 16.132 145.747 16.234 145.087 16.234C143.635 16.234 142.507 15.784 141.703 14.884C140.899 13.972 140.497 12.76 140.497 11.248C140.497 10.3 140.671 9.448 141.019 8.692C141.367 7.924 141.871 7.324 142.531 6.892C143.191 6.46 143.959 6.244 144.835 6.244C146.095 6.244 147.091 6.67 147.823 7.522C148.567 8.362 148.939 9.52 148.939 10.996C148.939 11.356 148.921 11.656 148.885 11.896H142.585ZM144.853 7.738C144.205 7.738 143.677 7.972 143.269 8.44C142.861 8.908 142.627 9.604 142.567 10.528H146.977C146.953 9.628 146.761 8.938 146.401 8.458C146.041 7.978 145.525 7.738 144.853 7.738Z" fill="#FF652F"/>
<path d="M151.704 6.496H153.45L153.594 7.738C153.99 7.258 154.452 6.892 154.98 6.64C155.52 6.376 156.084 6.244 156.672 6.244C157.548 6.244 158.208 6.49 158.652 6.982C159.096 7.474 159.318 8.17 159.318 9.07V16H157.302V10.078C157.302 9.49 157.266 9.04 157.194 8.728C157.134 8.404 157.008 8.17 156.816 8.026C156.624 7.87 156.336 7.792 155.952 7.792C155.52 7.792 155.106 7.924 154.71 8.188C154.326 8.452 153.996 8.782 153.72 9.178V16H151.704V6.496Z" fill="#FF652F"/>
<path d="M5.246 3.364C5.93 3.436 6.56 3.604 7.136 3.868C7.712 4.12 8.21 4.432 8.63 4.804L7.55 5.938C6.866 5.35 6.098 5.008 5.246 4.912V8.638C6.386 9.01 7.268 9.496 7.892 10.096C8.516 10.684 8.828 11.482 8.828 12.49C8.828 13.438 8.516 14.254 7.892 14.938C7.268 15.61 6.386 16.018 5.246 16.162V18.808H3.932V16.216C3.128 16.168 2.396 15.988 1.736 15.676C1.088 15.364 0.53 14.98 0.0620003 14.524L1.142 13.3C2.006 14.128 2.936 14.572 3.932 14.632V10.132C2.768 9.748 1.904 9.274 1.34 8.71C0.788 8.146 0.512 7.444 0.512 6.604C0.512 5.764 0.812 5.044 1.412 4.444C2.024 3.844 2.864 3.49 3.932 3.382V0.682H5.246V3.364ZM3.932 4.93C3.476 5.014 3.116 5.188 2.852 5.452C2.6 5.716 2.474 6.058 2.474 6.478C2.474 6.862 2.576 7.186 2.78 7.45C2.984 7.702 3.368 7.948 3.932 8.188V4.93ZM5.246 14.578C6.278 14.362 6.794 13.714 6.794 12.634C6.794 12.178 6.68 11.794 6.452 11.482C6.224 11.158 5.822 10.864 5.246 10.6V14.578Z" fill="#33D997"/>
</svg>

<svg viewBox="0 0 171 20" fill="none" xmlns="http://www.w3.org/2000/svg"><path d="M161.795 17.638h9v1.656h-9v-1.656Z" fill="#fff"/><path d="M24.258 8.584c.444 0 .822.09 1.134.27.312.18.666.444 1.062.792.3.264.54.456.72.576.18.108.378.162.594.162.336 0 .642-.126.918-.378s.54-.618.792-1.098l1.278.612c-.384.78-.81 1.392-1.278 1.836-.456.444-1.044.666-1.764.666-.42 0-.786-.09-1.098-.27a6.794 6.794 0 0 1-1.044-.774 5.16 5.16 0 0 0-.738-.558 1.089 1.089 0 0 0-.63-.198 1.29 1.29 0 0 0-.918.378c-.264.252-.528.618-.792 1.098l-1.278-.612c.384-.768.804-1.374 1.26-1.818.468-.456 1.062-.684 1.782-.684Zm7.912 8.604 7.633-15.804 1.584.738-7.614 15.786-1.602-.72ZM48.688 16l-1.08-6.75L46.456 16H43.99l-1.602-9.504h1.944l.99 8.244 1.332-7.038h2.016l1.224 7.038.99-8.244h1.872L51.208 16h-2.52Zm7.552-4.104c.06.924.325 1.62.793 2.088.48.456 1.08.684 1.8.684.444 0 .864-.066 1.26-.198a5.77 5.77 0 0 0 1.242-.63l.864 1.224c-.444.372-.966.66-1.566.864a5.83 5.83 0 0 1-1.89.306c-1.452 0-2.58-.45-3.384-1.35-.804-.912-1.206-2.124-1.206-3.636 0-.948.174-1.8.522-2.556.348-.768.852-1.368 1.512-1.8.66-.432 1.428-.648 2.304-.648 1.26 0 2.256.426 2.988 1.278.744.84 1.116 1.998 1.116 3.474 0 .36-.018.66-.054.9h-6.3Zm2.269-4.158c-.648 0-1.176.234-1.584.702-.408.468-.642 1.164-.702 2.088h4.41c-.024-.9-.216-1.59-.576-2.07-.36-.48-.876-.72-1.548-.72Zm8.867-.108a3.459 3.459 0 0 1 1.152-1.026c.456-.24.942-.36 1.458-.36 1.212 0 2.106.438 2.682 1.314.576.876.864 2.1.864 3.672 0 1.488-.336 2.694-1.008 3.618-.66.924-1.59 1.386-2.79 1.386-1.056 0-1.884-.39-2.484-1.17l-.108.936H65.36V2.68l2.016-.234V7.63Zm1.872 7.074c.696 0 1.224-.282 1.584-.846.372-.576.558-1.446.558-2.61 0-1.2-.168-2.076-.504-2.628-.324-.552-.81-.828-1.458-.828-.408 0-.792.126-1.152.378a3.421 3.421 0 0 0-.9.99v4.446c.48.732 1.104 1.098 1.872 1.098Zm6.095 2.484 7.632-15.804 1.584.738-7.614 15.786-1.602-.72ZM94.542 2.68V16H92.76l-.144-1.17a3.185 3.185 0 0 1-1.152 1.044c-.456.24-.96.36-1.512.36-1.188 0-2.082-.444-2.682-1.332-.6-.888-.9-2.106-.9-3.654 0-.972.15-1.836.45-2.592.312-.756.75-1.344 1.314-1.764.564-.432 1.23-.648 1.998-.648.972 0 1.77.348 2.394 1.044V2.446l2.016.234Zm-3.888 5.112c-.696 0-1.23.288-1.602.864-.36.564-.54 1.428-.54 2.592 0 2.304.66 3.456 1.98 3.456.792 0 1.47-.456 2.034-1.368V8.854c-.492-.708-1.116-1.062-1.872-1.062Zm8.759 4.104c.06.924.324 1.62.792 2.088.48.456 1.08.684 1.8.684.444 0 .864-.066 1.26-.198a5.77 5.77 0 0 0 1.242-.63l.864 1.224c-.444.372-.966.66-1.566.864a5.83 5.83 0 0 1-1.89.306c-1.452 0-2.58-.45-3.384-1.35-.804-.912-1.206-2.124-1.206-3.636 0-.948.174-1.8.522-2.556.348-.768.852-1.368 1.512-1.8.66-.432 1.428-.648 2.304-.648 1.26 0 2.256.426 2.988 1.278.744.84 1.116 1.998 1.116 3.474 0 .36-.018.66-.054.9h-6.3Zm2.268-4.158c-.648 0-1.176.234-1.584.702-.408.468-.642 1.164-.702 2.088h4.41c-.024-.9-.216-1.59-.576-2.07-.36-.48-.876-.72-1.548-.72ZM113.5 16h-2.34l-3.366-9.504h2.178l2.394 7.83 2.43-7.83h2.07L113.5 16Zm5.015 1.188 7.632-15.804 1.584.738-7.614 15.786-1.602-.72ZM137.714 2.68V16h-1.782l-.144-1.17a3.185 3.185 0 0 1-1.152 1.044c-.456.24-.96.36-1.512.36-1.188 0-2.082-.444-2.682-1.332-.6-.888-.9-2.106-.9-3.654 0-.972.15-1.836.45-2.592.312-.756.75-1.344 1.314-1.764.564-.432 1.23-.648 1.998-.648.972 0 1.77.348 2.394 1.044V2.446l2.016.234Zm-3.888 5.112c-.696 0-1.23.288-1.602.864-.36.564-.54 1.428-.54 2.592 0 2.304.66 3.456 1.98 3.456.792 0 1.47-.456 2.034-1.368V8.854c-.492-.708-1.116-1.062-1.872-1.062Zm8.759 4.104c.06.924.324 1.62.792 2.088.48.456 1.08.684 1.8.684.444 0 .864-.066 1.26-.198a5.77 5.77 0 0 0 1.242-.63l.864 1.224c-.444.372-.966.66-1.566.864a5.83 5.83 0 0 1-1.89.306c-1.452 0-2.58-.45-3.384-1.35-.804-.912-1.206-2.124-1.206-3.636 0-.948.174-1.8.522-2.556.348-.768.852-1.368 1.512-1.8.66-.432 1.428-.648 2.304-.648 1.26 0 2.256.426 2.988 1.278.744.84 1.116 1.998 1.116 3.474 0 .36-.018.66-.054.9h-6.3Zm2.268-4.158c-.648 0-1.176.234-1.584.702-.408.468-.642 1.164-.702 2.088h4.41c-.024-.9-.216-1.59-.576-2.07-.36-.48-.876-.72-1.548-.72Zm6.851-1.242h1.746l.144 1.242c.396-.48.858-.846 1.386-1.098a3.806 3.806 0 0 1 1.692-.396c.876 0 1.536.246 1.98.738.444.492.666 1.188.666 2.088V16h-2.016v-5.922c0-.588-.036-1.038-.108-1.35-.06-.324-.186-.558-.378-.702-.192-.156-.48-.234-.864-.234-.432 0-.846.132-1.242.396a3.882 3.882 0 0 0-.99.99V16h-2.016V6.496Z" fill="#FF652F"/><path d="M5.246 3.364c.684.072 1.314.24 1.89.504a5.645 5.645 0 0 1 1.494.936L7.55 5.938c-.684-.588-1.452-.93-2.304-1.026v3.726c1.14.372 2.022.858 2.646 1.458.624.588.936 1.386.936 2.394 0 .948-.312 1.764-.936 2.448-.624.672-1.506 1.08-2.646 1.224v2.646H3.932v-2.592a5.914 5.914 0 0 1-2.196-.54 6.275 6.275 0 0 1-1.674-1.152l1.08-1.224c.864.828 1.794 1.272 2.79 1.332v-4.5C2.768 9.748 1.904 9.274 1.34 8.71.788 8.146.512 7.444.512 6.604c0-.84.3-1.56.9-2.16.612-.6 1.452-.954 2.52-1.062v-2.7h1.314v2.682ZM3.932 4.93c-.456.084-.816.258-1.08.522-.252.264-.378.606-.378 1.026 0 .384.102.708.306.972.204.252.588.498 1.152.738V4.93Zm1.314 9.648c1.032-.216 1.548-.864 1.548-1.944 0-.456-.114-.84-.342-1.152-.228-.324-.63-.618-1.206-.882v3.978Z" fill="#33D997"/></svg>
